X: 00076
T: The HOUSE BAND JIG
C: Bob McQuillen 18 June'03
B: Bob's Note Book 00 #76
S: Facebook "Remembering MAC" message from laurie Indenbaum 2014-2-5
%R: jig
Z: 2020 John Chambers <jc:trillian.mit.edu>
M: 6/8
L: 1/8
K: G
d \
| geg dBA | GBG D2G | FGA GAB | ABc def |\
| ged BdB | GBG D2G | FGA DEF | GBd g2 :|
|: f \
| efg fed | efg f2d | efg fga | gee ede |\
| g3  e3  | dBd edB | edB GAB | AGF G2 :|
%%begintext align
%% What fun to hear them here
%% at Augusta - Ged, John, Chris, and Roger - Such great
%% music - All the best, guys!
%%endtext
%%begintext align
%% Ed. Note: Sometimes, when Roger isn't playing with
%% them, they have Sandy on fiddle instead, and they
%% sound just as good! - Sandy's a great fiddler, believe me!
%%endtext

%%sep 1 1 500

%%sep 1 1 500

